Newaita/actions/32/view-media-equalizer.svg

<svg height="32" viewBox="0 0 32 32" width="32" xmlns="http://www.w3.org/2000/svg"><g fill="#424242"><path d="m7.277344 6.203125v-2.644531c0-.367188-.296875-.664063-.664063-.664063h-1.320312c-.367188 0-.664063.296875-.664063.664063v2.644531c0 .367187.296875.660156.664063.660156h1.320312c.367188 0 .664063-.292969.664063-.660156zm0 0"/><path d="m2.644531 8.851562c0-1.835937 1.476563-3.308593 3.308594-3.308593s3.308594 1.472656 3.308594 3.308593c0 1.832032-1.476563 3.304688-3.308594 3.304688s-3.308594-1.472656-3.308594-3.304688zm1.324219 0c0 1.097657.886719 1.984376 1.984375 1.984376 1.101563 0 1.984375-.886719 1.984375-1.984376 0-1.101562-.882812-1.988281-1.984375-1.988281-1.097656 0-1.984375.886719-1.984375 1.988281zm0 0"/><path d="m7.277344 28.695312v-17.199218c0-.367188-.296875-.660156-.664063-.660156h-1.320312c-.367188 0-.664063.292968-.664063.660156v17.199218c0 .367188.296875.660157.664063.660157h1.320312c.367188 0 .664063-.292969.664063-.660157zm0 0"/><path d="m27.121094 13.480469v-9.921875c0-.367188-.292969-.664063-.660156-.664063h-1.324219c-.363281 0-.660157.296875-.660157.664063v9.921875c0 .367187.296876.660156.660157.660156h1.324219c.367187 0 .660156-.292969.660156-.660156zm0 0"/><path d="m22.492188 16.125c0-1.832031 1.476562-3.304688 3.308593-3.304688s3.304688 1.472657 3.304688 3.304688-1.472657 3.308594-3.304688 3.308594-3.308593-1.476563-3.308593-3.308594zm1.324218 0c0 1.101562.882813 1.984375 1.984375 1.984375 1.097657 0 1.984375-.882813 1.984375-1.984375 0-1.097656-.886718-1.984375-1.984375-1.984375-1.101562 0-1.984375.886719-1.984375 1.984375zm0 0"/><path d="m27.121094 28.695312v-9.921874c0-.367188-.292969-.664063-.660156-.664063h-1.324219c-.363281 0-.660157.296875-.660157.664063v9.921874c0 .367188.296876.660157.660157.660157h1.324219c.367187 0 .660156-.292969.660156-.660157zm0 0"/><path d="m17.199219 26.050781v2.644531c0 .367188-.296875.660157-.660157.660157h-1.324218c-.363282 0-.660156-.292969-.660156-.660157v-2.644531c0-.367187.296874-.664062.660156-.664062h1.324218c.363282 0 .660157.296875.660157.664062zm0 0"/><path d="m12.570312 23.402344c0 1.832031 1.472657 3.308594 3.304688 3.308594s3.308594-1.476563 3.308594-3.308594c0-1.832032-1.476563-3.308594-3.308594-3.308594s-3.304688 1.476562-3.304688 3.308594zm1.320313 0c0-1.097656.886719-1.984375 1.984375-1.984375 1.101562 0 1.984375.886719 1.984375 1.984375 0 1.101562-.882813 1.984375-1.984375 1.984375-1.097656 0-1.984375-.882813-1.984375-1.984375zm0 0"/><path d="m17.199219 3.558594v17.199218c0 .363282-.296875.660157-.660157.660157h-1.324218c-.363282 0-.660156-.296875-.660156-.660157v-17.199218c0-.367188.296874-.664063.660156-.664063h1.324218c.363282 0 .660157.296875.660157.664063zm0 0"/></g></svg>

<svg xmlns="http://www.w3.org/2000/svg" xmlns:xlink="http://www.w3.org/1999/xlink" width="32px" height="32px" viewBox="0 0 32 32" version="1.1">
<g id="surface1">
     <defs>
  <style id="current-color-scheme" type="text/css">
   .ColorScheme-Text { color:#424242; } .ColorScheme-Highlight { color:#eeeeee; }
  </style>
 </defs>
<path style="fill:currentColor" class="ColorScheme-Text" d="M 7.277344 6.203125 L 7.277344 3.558594 C 7.277344 3.191406 6.980469 2.894531 6.613281 2.894531 L 5.292969 2.894531 C 4.925781 2.894531 4.628906 3.191406 4.628906 3.558594 L 4.628906 6.203125 C 4.628906 6.570312 4.925781 6.863281 5.292969 6.863281 L 6.613281 6.863281 C 6.980469 6.863281 7.277344 6.570312 7.277344 6.203125 Z M 7.277344 6.203125 "/>
     <defs>
  <style id="current-color-scheme" type="text/css">
   .ColorScheme-Text { color:#424242; } .ColorScheme-Highlight { color:#eeeeee; }
  </style>
 </defs>
<path style="fill:currentColor" class="ColorScheme-Text" d="M 2.644531 8.851562 C 2.644531 7.015625 4.121094 5.542969 5.953125 5.542969 C 7.785156 5.542969 9.261719 7.015625 9.261719 8.851562 C 9.261719 10.683594 7.785156 12.15625 5.953125 12.15625 C 4.121094 12.15625 2.644531 10.683594 2.644531 8.851562 Z M 3.96875 8.851562 C 3.96875 9.949219 4.855469 10.835938 5.953125 10.835938 C 7.054688 10.835938 7.9375 9.949219 7.9375 8.851562 C 7.9375 7.75 7.054688 6.863281 5.953125 6.863281 C 4.855469 6.863281 3.96875 7.75 3.96875 8.851562 Z M 3.96875 8.851562 "/>
     <defs>
  <style id="current-color-scheme" type="text/css">
   .ColorScheme-Text { color:#424242; } .ColorScheme-Highlight { color:#eeeeee; }
  </style>
 </defs>
<path style="fill:currentColor" class="ColorScheme-Text" d="M 7.277344 28.695312 L 7.277344 11.496094 C 7.277344 11.128906 6.980469 10.835938 6.613281 10.835938 L 5.292969 10.835938 C 4.925781 10.835938 4.628906 11.128906 4.628906 11.496094 L 4.628906 28.695312 C 4.628906 29.0625 4.925781 29.355469 5.292969 29.355469 L 6.613281 29.355469 C 6.980469 29.355469 7.277344 29.0625 7.277344 28.695312 Z M 7.277344 28.695312 "/>
     <defs>
  <style id="current-color-scheme" type="text/css">
   .ColorScheme-Text { color:#424242; } .ColorScheme-Highlight { color:#eeeeee; }
  </style>
 </defs>
<path style="fill:currentColor" class="ColorScheme-Text" d="M 27.121094 13.480469 L 27.121094 3.558594 C 27.121094 3.191406 26.828125 2.894531 26.460938 2.894531 L 25.136719 2.894531 C 24.773438 2.894531 24.476562 3.191406 24.476562 3.558594 L 24.476562 13.480469 C 24.476562 13.847656 24.773438 14.140625 25.136719 14.140625 L 26.460938 14.140625 C 26.828125 14.140625 27.121094 13.847656 27.121094 13.480469 Z M 27.121094 13.480469 "/>
     <defs>
  <style id="current-color-scheme" type="text/css">
   .ColorScheme-Text { color:#424242; } .ColorScheme-Highlight { color:#eeeeee; }
  </style>
 </defs>
<path style="fill:currentColor" class="ColorScheme-Text" d="M 22.492188 16.125 C 22.492188 14.292969 23.96875 12.820312 25.800781 12.820312 C 27.632812 12.820312 29.105469 14.292969 29.105469 16.125 C 29.105469 17.957031 27.632812 19.433594 25.800781 19.433594 C 23.96875 19.433594 22.492188 17.957031 22.492188 16.125 Z M 23.816406 16.125 C 23.816406 17.226562 24.699219 18.109375 25.800781 18.109375 C 26.898438 18.109375 27.785156 17.226562 27.785156 16.125 C 27.785156 15.027344 26.898438 14.140625 25.800781 14.140625 C 24.699219 14.140625 23.816406 15.027344 23.816406 16.125 Z M 23.816406 16.125 "/>
     <defs>
  <style id="current-color-scheme" type="text/css">
   .ColorScheme-Text { color:#424242; } .ColorScheme-Highlight { color:#eeeeee; }
  </style>
 </defs>
<path style="fill:currentColor" class="ColorScheme-Text" d="M 27.121094 28.695312 L 27.121094 18.773438 C 27.121094 18.40625 26.828125 18.109375 26.460938 18.109375 L 25.136719 18.109375 C 24.773438 18.109375 24.476562 18.40625 24.476562 18.773438 L 24.476562 28.695312 C 24.476562 29.0625 24.773438 29.355469 25.136719 29.355469 L 26.460938 29.355469 C 26.828125 29.355469 27.121094 29.0625 27.121094 28.695312 Z M 27.121094 28.695312 "/>
     <defs>
  <style id="current-color-scheme" type="text/css">
   .ColorScheme-Text { color:#424242; } .ColorScheme-Highlight { color:#eeeeee; }
  </style>
 </defs>
<path style="fill:currentColor" class="ColorScheme-Text" d="M 17.199219 26.050781 L 17.199219 28.695312 C 17.199219 29.0625 16.902344 29.355469 16.539062 29.355469 L 15.214844 29.355469 C 14.851562 29.355469 14.554688 29.0625 14.554688 28.695312 L 14.554688 26.050781 C 14.554688 25.683594 14.851562 25.386719 15.214844 25.386719 L 16.539062 25.386719 C 16.902344 25.386719 17.199219 25.683594 17.199219 26.050781 Z M 17.199219 26.050781 "/>
     <defs>
  <style id="current-color-scheme" type="text/css">
   .ColorScheme-Text { color:#424242; } .ColorScheme-Highlight { color:#eeeeee; }
  </style>
 </defs>
<path style="fill:currentColor" class="ColorScheme-Text" d="M 12.570312 23.402344 C 12.570312 25.234375 14.042969 26.710938 15.875 26.710938 C 17.707031 26.710938 19.183594 25.234375 19.183594 23.402344 C 19.183594 21.570312 17.707031 20.09375 15.875 20.09375 C 14.042969 20.09375 12.570312 21.570312 12.570312 23.402344 Z M 13.890625 23.402344 C 13.890625 22.304688 14.777344 21.417969 15.875 21.417969 C 16.976562 21.417969 17.859375 22.304688 17.859375 23.402344 C 17.859375 24.503906 16.976562 25.386719 15.875 25.386719 C 14.777344 25.386719 13.890625 24.503906 13.890625 23.402344 Z M 13.890625 23.402344 "/>
     <defs>
  <style id="current-color-scheme" type="text/css">
   .ColorScheme-Text { color:#424242; } .ColorScheme-Highlight { color:#eeeeee; }
  </style>
 </defs>
<path style="fill:currentColor" class="ColorScheme-Text" d="M 17.199219 3.558594 L 17.199219 20.757812 C 17.199219 21.121094 16.902344 21.417969 16.539062 21.417969 L 15.214844 21.417969 C 14.851562 21.417969 14.554688 21.121094 14.554688 20.757812 L 14.554688 3.558594 C 14.554688 3.191406 14.851562 2.894531 15.214844 2.894531 L 16.539062 2.894531 C 16.902344 2.894531 17.199219 3.191406 17.199219 3.558594 Z M 17.199219 3.558594 "/>
</g>
</svg>
